TileServer und Tiles/svg/9/108_56.svg

<?xml version='1.0' encoding='UTF-8' standalone='no'?>
<svg xmlns="http://www.w3.org/2000/svg" width="497pt" viewBox="0 0 497 279" xmlns:xlink="http://www.w3.org/1999/xlink" height="279pt">
 <defs style="stroke:none;" overflow="visible">
  <path id="glyph0-6" d="M 0.296875 0 L 2.0625 -8.359375 L 3.046875 -8.359375 L 2.328125 -5.03125 C 2.203125 -4.445312 2.09375 -3.992188 2 -3.671875 C 1.914062 -3.359375 1.851562 -3.148438 1.8125 -3.046875 L 1.84375 -3.046875 L 4.625 -5.890625 L 5.78125 -5.890625 L 3.25 -3.359375 L 4.8125 0 L 3.75 0 L 2.515625 -2.765625 L 1.71875 -2.140625 L 1.28125 0 Z M 0.296875 0 "/>
  <path id="glyph0-5" d="M -0.53125 2.640625 C -0.664062 2.640625 -0.789062 2.628906 -0.90625 2.609375 C -1.03125 2.585938 -1.140625 2.5625 -1.234375 2.53125 L -1.234375 1.71875 C -1.128906 1.75 -1.03125 1.773438 -0.9375 1.796875 C -0.84375 1.828125 -0.734375 1.84375 -0.609375 1.84375 C -0.390625 1.84375 -0.195312 1.75 -0.03125 1.5625 C 0.125 1.375 0.253906 1.046875 0.359375 0.578125 L 1.5625 -5.15625 L 0.53125 -5.15625 L 0.609375 -5.5625 L 1.71875 -5.921875 L 1.84375 -6.453125 C 1.957031 -6.960938 2.097656 -7.359375 2.265625 -7.640625 C 2.441406 -7.921875 2.65625 -8.117188 2.90625 -8.234375 C 3.164062 -8.359375 3.476562 -8.421875 3.84375 -8.421875 C 4.019531 -8.421875 4.207031 -8.398438 4.40625 -8.359375 C 4.601562 -8.316406 4.757812 -8.265625 4.875 -8.203125 L 4.625 -7.46875 C 4.519531 -7.507812 4.40625 -7.546875 4.28125 -7.578125 C 4.164062 -7.609375 4.035156 -7.625 3.890625 -7.625 C 3.597656 -7.625 3.367188 -7.539062 3.203125 -7.375 C 3.035156 -7.21875 2.90625 -6.910156 2.8125 -6.453125 L 2.671875 -5.890625 L 5.21875 -5.890625 L 5.34375 -6.46875 C 5.457031 -6.96875 5.597656 -7.359375 5.765625 -7.640625 C 5.941406 -7.921875 6.160156 -8.117188 6.421875 -8.234375 C 6.679688 -8.359375 6.988281 -8.421875 7.34375 -8.421875 C 7.539062 -8.421875 7.734375 -8.398438 7.921875 -8.359375 C 8.117188 -8.316406 8.273438 -8.265625 8.390625 -8.203125 L 8.125 -7.46875 C 8.019531 -7.507812 7.90625 -7.546875 7.78125 -7.578125 C 7.664062 -7.609375 7.539062 -7.625 7.40625 -7.625 C 7.113281 -7.625 6.882812 -7.539062 6.71875 -7.375 C 6.550781 -7.21875 6.414062 -6.910156 6.3125 -6.453125 L 6.1875 -5.890625 L 7.453125 -5.890625 L 7.296875 -5.15625 L 6.03125 -5.15625 L 4.8125 0.6875 C 4.675781 1.300781 4.46875 1.78125 4.1875 2.125 C 3.914062 2.46875 3.515625 2.640625 2.984375 2.640625 C 2.703125 2.640625 2.46875 2.601562 2.28125 2.53125 L 2.28125 1.71875 C 2.375 1.75 2.472656 1.773438 2.578125 1.796875 C 2.679688 1.828125 2.789062 1.84375 2.90625 1.84375 C 3.125 1.84375 3.3125 1.75 3.46875 1.5625 C 3.632812 1.375 3.765625 1.046875 3.859375 0.578125 L 5.078125 -5.15625 L 2.53125 -5.15625 L 1.296875 0.6875 C 1.160156 1.300781 0.953125 1.78125 0.671875 2.125 C 0.398438 2.46875 0 2.640625 -0.53125 2.640625 Z M 9.359375 -6.875 C 9.222656 -6.875 9.101562 -6.921875 9 -7.015625 C 8.894531 -7.109375 8.84375 -7.234375 8.84375 -7.390625 C 8.84375 -7.578125 8.898438 -7.738281 9.015625 -7.875 C 9.128906 -8.019531 9.289062 -8.09375 9.5 -8.09375 C 9.820312 -8.09375 9.984375 -7.925781 9.984375 -7.59375 C 9.984375 -7.375 9.914062 -7.195312 9.78125 -7.0625 C 9.65625 -6.9375 9.515625 -6.875 9.359375 -6.875 Z M 7.328125 0 L 8.59375 -5.890625 L 9.5625 -5.890625 L 8.296875 0 Z M 7.328125 0 "/>
  <path id="glyph0-4" d="M 2.078125 0.109375 C 1.628906 0.109375 1.269531 -0.015625 1 -0.265625 C 0.738281 -0.515625 0.609375 -0.878906 0.609375 -1.359375 C 0.609375 -1.523438 0.617188 -1.679688 0.640625 -1.828125 C 0.671875 -1.984375 0.695312 -2.140625 0.71875 -2.296875 L 1.5 -5.890625 L 2.46875 -5.890625 L 1.6875 -2.1875 C 1.613281 -1.875 1.578125 -1.628906 1.578125 -1.453125 C 1.578125 -1.210938 1.640625 -1.023438 1.765625 -0.890625 C 1.890625 -0.753906 2.085938 -0.6875 2.359375 -0.6875 C 2.609375 -0.6875 2.875 -0.773438 3.15625 -0.953125 C 3.445312 -1.128906 3.71875 -1.410156 3.96875 -1.796875 C 4.21875 -2.191406 4.410156 -2.710938 4.546875 -3.359375 L 5.09375 -5.890625 L 6.046875 -5.890625 L 4.796875 0 L 4 0 L 4.125 -1.09375 L 4.0625 -1.09375 C 3.925781 -0.914062 3.765625 -0.734375 3.578125 -0.546875 C 3.390625 -0.359375 3.171875 -0.203125 2.921875 -0.078125 C 2.679688 0.046875 2.398438 0.109375 2.078125 0.109375 Z M 2.078125 0.109375 "/>
  <path id="glyph0-3" d="M 2.03125 0.109375 C 1.632812 0.109375 1.300781 0.015625 1.03125 -0.171875 C 0.757812 -0.367188 0.625 -0.703125 0.625 -1.171875 C 0.625 -1.410156 0.65625 -1.671875 0.71875 -1.953125 L 1.390625 -5.15625 L 0.484375 -5.15625 L 0.578125 -5.59375 L 1.5625 -6.015625 L 2.25 -7.234375 L 2.8125 -7.234375 L 2.515625 -5.890625 L 4 -5.890625 L 3.84375 -5.15625 L 2.375 -5.15625 L 1.6875 -1.953125 C 1.664062 -1.847656 1.644531 -1.734375 1.625 -1.609375 C 1.601562 -1.492188 1.59375 -1.382812 1.59375 -1.28125 C 1.59375 -1.113281 1.640625 -0.972656 1.734375 -0.859375 C 1.828125 -0.742188 1.972656 -0.6875 2.171875 -0.6875 C 2.304688 -0.6875 2.4375 -0.695312 2.5625 -0.71875 C 2.6875 -0.75 2.816406 -0.785156 2.953125 -0.828125 L 2.953125 -0.09375 C 2.867188 -0.0390625 2.734375 0.00390625 2.546875 0.046875 C 2.367188 0.0859375 2.195312 0.109375 2.03125 0.109375 Z M 2.03125 0.109375 "/>
  <path id="glyph0-2" d="M 2.34375 -6.875 C 2.1875 -6.875 2.054688 -6.921875 1.953125 -7.015625 C 1.859375 -7.109375 1.8125 -7.234375 1.8125 -7.390625 C 1.8125 -7.578125 1.867188 -7.738281 1.984375 -7.875 C 2.097656 -8.019531 2.257812 -8.09375 2.46875 -8.09375 C 2.800781 -8.09375 2.96875 -7.925781 2.96875 -7.59375 C 2.96875 -7.375 2.898438 -7.195312 2.765625 -7.0625 C 2.640625 -6.9375 2.5 -6.875 2.34375 -6.875 Z M 0.3125 0 L 1.5625 -5.890625 L 2.53125 -5.890625 L 1.28125 0 Z M 0.3125 0 "/>
  <path id="glyph0-1" d="M 0.453125 0 L 2.109375 -7.859375 L 3.890625 -7.859375 C 4.734375 -7.859375 5.332031 -7.664062 5.6875 -7.28125 C 6.050781 -6.90625 6.234375 -6.414062 6.234375 -5.8125 C 6.234375 -4.925781 5.941406 -4.242188 5.359375 -3.765625 C 4.773438 -3.296875 3.914062 -3.0625 2.78125 -3.0625 L 2.078125 -3.0625 L 1.4375 0 Z M 2.25 -3.890625 L 2.9375 -3.890625 C 3.644531 -3.890625 4.203125 -4.039062 4.609375 -4.34375 C 5.023438 -4.65625 5.234375 -5.132812 5.234375 -5.78125 C 5.234375 -6.207031 5.109375 -6.515625 4.859375 -6.703125 C 4.617188 -6.898438 4.25 -7 3.75 -7 L 2.921875 -7 Z M 2.25 -3.890625 "/>
  <path id="glyph0-0" d="M 1.03125 0 L 1.03125 -7.859375 L 5.5625 -7.859375 L 5.5625 0 Z M 1.59375 -0.5625 L 5 -0.5625 L 5 -7.296875 L 1.59375 -7.296875 Z M 1.59375 -0.5625 "/>
 </defs>
 <image width="497" xlink:href="svg/9/108_56.jpg" height="279"/>
 <g>
  <path d="M 386.125 112.648438 L 387.78125 104.789062 L 389.5625 104.789062 C 390.40625 104.789062 391.003906 104.984375 391.359375 105.367188 C 391.722656 105.742188 391.90625 106.234375 391.90625 106.835938 C 391.90625 107.722656 391.613281 108.40625 391.03125 108.882812 C 390.445312 109.351562 389.585938 109.585938 388.453125 109.585938 L 387.75 109.585938 L 387.109375 112.648438 Z M 387.921875 108.757812 L 388.609375 108.757812 C 389.316406 108.757812 389.875 108.609375 390.28125 108.304688 C 390.695312 107.992188 390.90625 107.515625 390.90625 106.867188 C 390.90625 106.441406 390.78125 106.132812 390.53125 105.945312 C 390.289062 105.75 389.921875 105.648438 389.421875 105.648438 L 388.59375 105.648438 Z M 387.921875 108.757812 " transform=" rotate(  340 403.265 109.65) " style="fill:none;stroke-width:3;stroke-linecap:butt;stroke-linejoin:round;stroke:rgb(100%,100%,100%);stroke-opacity:0.6;stroke-miterlimit:10;"/>
  <path d="M 394.25 105.773438 C 394.09375 105.773438 393.960938 105.726562 393.859375 105.632812 C 393.765625 105.539062 393.71875 105.414062 393.71875 105.257812 C 393.71875 105.070312 393.773438 104.910156 393.890625 104.773438 C 394.003906 104.628906 394.164062 104.554688 394.375 104.554688 C 394.707031 104.554688 394.875 104.722656 394.875 105.054688 C 394.875 105.273438 394.804688 105.453125 394.671875 105.585938 C 394.546875 105.710938 394.40625 105.773438 394.25 105.773438 Z M 392.21875 112.648438 L 393.46875 106.757812 L 394.4375 106.757812 L 393.1875 112.648438 Z M 392.21875 112.648438 " transform=" rotate(  340 403.265 109.65) " style="fill:none;stroke-width:3;stroke-linecap:butt;stroke-linejoin:round;stroke:rgb(100%,100%,100%);stroke-opacity:0.6;stroke-miterlimit:10;"/>
  <path d="M 396.777344 112.757812 C 396.378906 112.757812 396.046875 112.664062 395.777344 112.476562 C 395.503906 112.28125 395.371094 111.945312 395.371094 111.476562 C 395.371094 111.238281 395.402344 110.976562 395.464844 110.695312 L 396.136719 107.492188 L 395.230469 107.492188 L 395.324219 107.054688 L 396.308594 106.632812 L 396.996094 105.414062 L 397.558594 105.414062 L 397.261719 106.757812 L 398.746094 106.757812 L 398.589844 107.492188 L 397.121094 107.492188 L 396.433594 110.695312 C 396.410156 110.800781 396.390625 110.914062 396.371094 111.039062 C 396.347656 111.15625 396.339844 111.265625 396.339844 111.367188 C 396.339844 111.535156 396.386719 111.675781 396.480469 111.789062 C 396.574219 111.90625 396.71875 111.960938 396.917969 111.960938 C 397.050781 111.960938 397.183594 111.953125 397.308594 111.929688 C 397.433594 111.898438 397.5625 111.863281 397.699219 111.820312 L 397.699219 112.554688 C 397.613281 112.609375 397.480469 112.652344 397.292969 112.695312 C 397.113281 112.734375 396.941406 112.757812 396.777344 112.757812 Z M 396.777344 112.757812 " transform=" rotate(  340 403.265 109.65) " style="fill:none;stroke-width:3;stroke-linecap:butt;stroke-linejoin:round;stroke:rgb(100%,100%,100%);stroke-opacity:0.6;stroke-miterlimit:10;"/>
  <path d="M 400.476562 112.757812 C 400.027344 112.757812 399.667969 112.632812 399.398438 112.382812 C 399.136719 112.132812 399.007812 111.769531 399.007812 111.289062 C 399.007812 111.125 399.015625 110.96875 399.039062 110.820312 C 399.070312 110.664062 399.09375 110.507812 399.117188 110.351562 L 399.898438 106.757812 L 400.867188 106.757812 L 400.085938 110.460938 C 400.011719 110.773438 399.976562 111.019531 399.976562 111.195312 C 399.976562 111.4375 400.039062 111.625 400.164062 111.757812 C 400.289062 111.894531 400.484375 111.960938 400.757812 111.960938 C 401.007812 111.960938 401.273438 111.875 401.554688 111.695312 C 401.84375 111.519531 402.117188 111.238281 402.367188 110.851562 C 402.617188 110.457031 402.808594 109.9375 402.945312 109.289062 L 403.492188 106.757812 L 404.445312 106.757812 L 403.195312 112.648438 L 402.398438 112.648438 L 402.523438 111.554688 L 402.460938 111.554688 C 402.324219 111.734375 402.164062 111.914062 401.976562 112.101562 C 401.789062 112.289062 401.570312 112.445312 401.320312 112.570312 C 401.078125 112.695312 400.796875 112.757812 400.476562 112.757812 Z M 400.476562 112.757812 " transform=" rotate(  340 403.265 109.65) " style="fill:none;stroke-width:3;stroke-linecap:butt;stroke-linejoin:round;stroke:rgb(100%,100%,100%);stroke-opacity:0.6;stroke-miterlimit:10;"/>
  <path d="M 404.234375 115.289062 C 404.101562 115.289062 403.976562 115.277344 403.859375 115.257812 C 403.734375 115.234375 403.625 115.210938 403.53125 115.179688 L 403.53125 114.367188 C 403.636719 114.398438 403.734375 114.421875 403.828125 114.445312 C 403.921875 114.476562 404.03125 114.492188 404.15625 114.492188 C 404.375 114.492188 404.570312 114.398438 404.734375 114.210938 C 404.890625 114.023438 405.019531 113.695312 405.125 113.226562 L 406.328125 107.492188 L 405.296875 107.492188 L 405.375 107.085938 L 406.484375 106.726562 L 406.609375 106.195312 C 406.722656 105.6875 406.863281 105.289062 407.03125 105.007812 C 407.207031 104.726562 407.421875 104.53125 407.671875 104.414062 C 407.929688 104.289062 408.242188 104.226562 408.609375 104.226562 C 408.785156 104.226562 408.972656 104.25 409.171875 104.289062 C 409.367188 104.332031 409.523438 104.382812 409.640625 104.445312 L 409.390625 105.179688 C 409.285156 105.140625 409.171875 105.101562 409.046875 105.070312 C 408.929688 105.039062 408.800781 105.023438 408.65625 105.023438 C 408.363281 105.023438 408.132812 105.109375 407.96875 105.273438 C 407.800781 105.429688 407.671875 105.738281 407.578125 106.195312 L 407.4375 106.757812 L 409.984375 106.757812 L 410.109375 106.179688 C 410.222656 105.679688 410.363281 105.289062 410.53125 105.007812 C 410.707031 104.726562 410.925781 104.53125 411.1875 104.414062 C 411.445312 104.289062 411.753906 104.226562 412.109375 104.226562 C 412.304688 104.226562 412.5 104.25 412.6875 104.289062 C 412.882812 104.332031 413.039062 104.382812 413.15625 104.445312 L 412.890625 105.179688 C 412.785156 105.140625 412.671875 105.101562 412.546875 105.070312 C 412.429688 105.039062 412.304688 105.023438 412.171875 105.023438 C 411.878906 105.023438 411.648438 105.109375 411.484375 105.273438 C 411.316406 105.429688 411.179688 105.738281 411.078125 106.195312 L 410.953125 106.757812 L 412.21875 106.757812 L 412.0625 107.492188 L 410.796875 107.492188 L 409.578125 113.335938 C 409.441406 113.949219 409.234375 114.429688 408.953125 114.773438 C 408.679688 115.117188 408.28125 115.289062 407.75 115.289062 C 407.46875 115.289062 407.234375 115.25 407.046875 115.179688 L 407.046875 114.367188 C 407.140625 114.398438 407.238281 114.421875 407.34375 114.445312 C 407.445312 114.476562 407.554688 114.492188 407.671875 114.492188 C 407.890625 114.492188 408.078125 114.398438 408.234375 114.210938 C 408.398438 114.023438 408.53125 113.695312 408.625 113.226562 L 409.84375 107.492188 L 407.296875 107.492188 L 406.0625 113.335938 C 405.925781 113.949219 405.71875 114.429688 405.4375 114.773438 C 405.164062 115.117188 404.765625 115.289062 404.234375 115.289062 Z M 414.125 105.773438 C 413.988281 105.773438 413.867188 105.726562 413.765625 105.632812 C 413.660156 105.539062 413.609375 105.414062 413.609375 105.257812 C 413.609375 105.070312 413.664062 104.910156 413.78125 104.773438 C 413.894531 104.628906 414.054688 104.554688 414.265625 104.554688 C 414.585938 104.554688 414.75 104.722656 414.75 105.054688 C 414.75 105.273438 414.679688 105.453125 414.546875 105.585938 C 414.421875 105.710938 414.28125 105.773438 414.125 105.773438 Z M 412.09375 112.648438 L 413.359375 106.757812 L 414.328125 106.757812 L 413.0625 112.648438 Z M 412.09375 112.648438 " transform=" rotate(  340 403.265 109.65) " style="fill:none;stroke-width:3;stroke-linecap:butt;stroke-linejoin:round;stroke:rgb(100%,100%,100%);stroke-opacity:0.6;stroke-miterlimit:10;"/>
  <path d="M 414.917969 112.648438 L 416.683594 104.289062 L 417.667969 104.289062 L 416.949219 107.617188 C 416.824219 108.203125 416.714844 108.65625 416.621094 108.976562 C 416.535156 109.289062 416.472656 109.5 416.433594 109.601562 L 416.464844 109.601562 L 419.246094 106.757812 L 420.402344 106.757812 L 417.871094 109.289062 L 419.433594 112.648438 L 418.371094 112.648438 L 417.136719 109.882812 L 416.339844 110.507812 L 415.902344 112.648438 Z M 414.917969 112.648438 " transform=" rotate(  340 403.265 109.65) " style="fill:none;stroke-width:3;stroke-linecap:butt;stroke-linejoin:round;stroke:rgb(100%,100%,100%);stroke-opacity:0.6;stroke-miterlimit:10;"/>
  <g transform=" rotate(  340 403.265 109.65) " style="fill:rgb(49.803922%,34.117647%,49.411765%);fill-opacity:1;">
   <use xlink:href="#glyph0-1" y="112.650287" x="385.670381"/>
   <use xlink:href="#glyph0-2" y="112.650287" x="391.907381"/>
   <use xlink:href="#glyph0-3" y="112.650287" x="394.745381"/>
   <use xlink:href="#glyph0-4" y="112.650287" x="398.397381"/>
   <use xlink:href="#glyph0-5" y="112.650287" x="404.766381"/>
   <use xlink:href="#glyph0-6" y="112.650287" x="414.622381"/>
  </g>
 </g>
</svg>

<svg xmlns="http://www.w3.org/2000/svg" xmlns:xlink="http://www.w3.org/1999/xlink" viewBox="0 0 497 279"> <defs overflow="visible" style="stroke:none">  <path id="f" d="m.3 0 1.8-8.4H3L2.2-5a20 20 0 0 1-.4 2l2.8-3h1.2L3.3-3.4 4.8 0h-1L2.5-2.8l-.8.8-.4 2Zm0 0"/>  <path id="e" d="M-.5 2.6a2.3 2.3 0 0 1-.7 0v-1l.2.2h.4c.2 0 .4 0 .6-.2l.4-1 1.2-5.8h-1v-.4l1.1-.3.1-.6.5-1.1c.1-.4.4-.5.6-.6.3-.2.6-.2 1.1-.2h.3l.7.2-.4.7h-.3l-.4-.2c-.3.1-.5.1-.7.3-.2.2-.3.5-.4 1l-.1.4h2.5l.1-.5.5-1.1c.1-.4.4-.5.6-.6.3-.2.6-.2 1-.2h.4l.6.2-.4.7h-.2l-.4-.2c-.3.1-.4.1-.7.3l-.4 1-.1.4h1.3l-.2.8H6L4.8.7c-.1.6-.3 1-.6 1.3-.3.5-.7.6-1.2.6a2 2 0 0 1-.7 0v-1l.3.2h.3c.2 0 .4 0 .6-.2l.4-1L5-5.2H2.5L1.3.7c-.1.6-.3 1-.6 1.3-.3.5-.7.6-1.2.6Zm9.9-9.5L9-7l-.2-.4.2-.5.5-.1c.3 0 .5.1.5.4 0 .2 0 .4-.2.6-.1.1-.3.1-.4.1ZM7.4 0l1.1-5.9h1.1L8.3 0Zm-.1 0"/>  <path id="d" d="M2 .1c-.3 0-.6-.1-1-.4-.3-.2-.4-.6-.4-1a3 3 0 0 1 0-.6l.1-.4.8-3.6h1l-.8 3.7-.1.7c0 .3 0 .5.2.6l.6.2c.2 0 .5 0 .8-.3l.8-.8.5-1.6.6-2.5H6L4.7 0H4l.1-1c-.2 0-.3.2-.5.4l-.7.5-.8.2Zm0 0"/>  <path id="c" d="M2 .1c-.4 0-.7 0-1-.3-.2-.2-.4-.5-.4-1L.7-2l.7-3.2h-1l.3-.4.9-.4.6-1.2h.7L2.5-6H4l-.2.8H2.4L1.7-2v.4l-.2.3.2.4c.1.2.3.2.5.2h.4L3-.8v.7l-.5.1-.5.1Zm0 0"/>  <path id="b" d="M2.3-6.9 2-7l-.2-.4c0-.2 0-.3.2-.5l.5-.1c.3 0 .5.1.5.4l-.2.6c-.2.1-.3.1-.5.1ZM.3 0l1.3-5.9h1L1.2 0Zm0 0"/>  <path id="a" d="M.5 0 2-7.9h2c.7 0 1.3.2 1.7.6.3.4.5.9.5 1.5 0 .8-.2 1.6-.8 2-.6.5-1.5.8-2.6.8H2l-.6 3Zm1.8-3.9h.6c.7 0 1.3-.1 1.7-.4.4-.4.6-.8.6-1.5 0-.4 0-.7-.2-.9-.4-.2-.8-.3-1.3-.3H3Zm0 0"/>  <path d="M1 0v-7.9h4.6V0Zm.6-.6H5v-6.7H1.6Zm0 0"/> </defs> <image xlink:href="svg/9/108_56.jpg" width="497" height="279"/> <path d="m386.1 112.6 1.7-7.8h1.8c.8 0 1.4.2 1.8.6.3.3.5.8.5 1.4.1 1-.3 1.6-.9 2-.6.7-1.4.9-2.5.9h-.8l-.6 2.9Zm1.9-3.8h.6c.7 0 1.4-.2 1.7-.5.4-.3.6-.8.6-1.4.1-.5-.1-.9-.4-1-.2-.2-.5-.3-1-.3h-1.1Zm6.3-3c-.3 0-.3 0-.4-.2l-.2-.3c0-.3 0-.4.3-.5 0-.2.2-.2.4-.2.3 0 .5.1.5.4l-.2.6-.4.2Zm-2 6.8 1.1-5.8h1.1l-1.4 5.8Zm4.5.2c-.4 0-.8-.1-1-.3-.3-.2-.4-.6-.4-1v-.8l.8-3.2h-1l.1-.5 1-.4.7-1.2h.6l-.3 1.4h1.4l-.1.7H397l-.6 3.2v1.1l.6.2h.3l.4-.3v.9l-.4.1h-.5Zm3.7 0c-.5 0-.8-.2-1.1-.4-.3-.4-.4-.6-.4-1.1a3 3 0 0 1 0-.5l.1-.4.9-3.6h.9l-.9 3.7v.7c0 .2 0 .4.2.6l.6.2.8-.3.8-.8.5-1.6.6-2.5h1l-1.4 5.8h-.7l.1-1-.5.4-.7.6-.8.2Zm3.7 2.5a2.3 2.3 0 0 1-.7-.1v-.8h.7c.2.1.4.1.5-.1.3-.3.3-.6.4-1.1l1.2-5.7h-1v-.5l1.3-.3v-.5l.4-1.2c.2-.3.4-.5.7-.6l1-.2h.4l.5.3-.2.7-.4-.2h-.3c-.3 0-.7 0-.7.2-.2.2-.3.5-.4 1l-.2.6h2.6v-.6l.5-1.2c.2-.3.5-.5.7-.6l1-.2h.4l.6.3-.3.7-.4-.2h-.3c-.3 0-.6 0-.7.2-.2.2-.3.5-.5 1v.6h1.2l-.1.7h-1.3l-1.2 5.8-.6 1.5c-.3.2-.7.5-1.3.5a2 2 0 0 1-.7-.1v-.8h.7c.2.1.3.1.5-.1.2-.3.3-.6.4-1.1l1.2-5.7h-2.5l-1.2 5.8c-.2.7-.4 1.1-.7 1.5-.2.2-.6.5-1.2.5Zm10-9.5c-.2 0-.4 0-.5-.2l-.1-.3c0-.3 0-.4.2-.5 0-.2.2-.2.5-.2s.4.1.4.4c.1.3.1.5-.1.6l-.5.2Zm-2.2 6.8 1.4-5.8h1l-1.4 5.8Zm3 0 1.6-8.3h1.1l-.8 3.3a20 20 0 0 1-.5 2l2.9-2.8h1.1l-2.5 2.5 1.5 3.3h-1L417 110l-.7.5-.3 2.1Zm0 0" style="fill:none;stroke-width:3;stroke-linecap:butt;stroke-linejoin:round;stroke:#fff;stroke-opacity:.6;stroke-miterlimit:10" transform=" rotate(  340 403.265 109.65) "/> <g style="fill:#7f577e;fill-opacity:1" transform=" rotate(  340 403.265 109.65) ">  <use xlink:href="#a" x="385.7" y="112.7"/>  <use xlink:href="#b" x="391.9" y="112.7"/>  <use xlink:href="#c" x="394.7" y="112.7"/>  <use xlink:href="#d" x="398.4" y="112.7"/>  <use xlink:href="#e" x="404.8" y="112.7"/>  <use xlink:href="#f" x="414.6" y="112.7"/> </g></svg>
